X:1
T:The Ludlow Massacre
M:4/4
L:1/8
K:C
 z4 z C/2C/2 CE| G G- G2- G A/2G/2 EC|E-C C3 CD E| F4- FC FF| G4- GG AG|\
 c c- c3 G/2G/2 A/2A/2 G|E-C C3 CC E/2E/2| G4- G E/2E/2 DD| C4- C z z2|\
